logo/aws-neptune.svg

<?xml version="1.0" encoding="UTF-8"?>
<svg width="256px" height="256px" viewBox="0 0 256 256" version="1.1" xmlns="http://www.w3.org/2000/svg" xmlns:xlink="http://www.w3.org/1999/xlink" preserveAspectRatio="xMidYMid">
    <title>AWS Neptune</title>
    <defs>
        <linearGradient x1="0%" y1="100%" x2="100%" y2="0%" id="linearGradient-1">
            <stop stop-color="#2E27AD" offset="0%"></stop>
            <stop stop-color="#527FFF" offset="100%"></stop>
        </linearGradient>
    </defs>
    <g>
        <rect fill="url(#linearGradient-1)" x="0" y="0" width="256" height="256"></rect>
        <path d="M208,185.6 C206.2336,185.6 204.8,184.1632 204.8,182.4 C204.8,180.6368 206.2336,179.2 208,179.2 C209.7664,179.2 211.2,180.6368 211.2,182.4 C211.2,184.1632 209.7664,185.6 208,185.6 L208,185.6 Z M177.6,211.2 C173.1872,211.2 169.6,207.6096 169.6,203.2 C169.6,198.7904 173.1872,195.2 177.6,195.2 C182.0128,195.2 185.6,198.7904 185.6,203.2 C185.6,207.6096 182.0128,211.2 177.6,211.2 L177.6,211.2 Z M163.2,155.2 C163.2,149.024 168.224,144 174.4,144 C180.576,144 185.6,149.024 185.6,155.2 C185.6,161.376 180.576,166.4 174.4,166.4 C168.224,166.4 163.2,161.376 163.2,155.2 L163.2,155.2 Z M144,128 C142.2336,128 140.8,126.5632 140.8,124.8 C140.8,123.0368 142.2336,121.6 144,121.6 C145.7664,121.6 147.2,123.0368 147.2,124.8 C147.2,126.5632 145.7664,128 144,128 L144,128 Z M134.4,172.8 C130.8704,172.8 128,169.9296 128,166.4 C128,162.8704 130.8704,160 134.4,160 C137.9296,160 140.8,162.8704 140.8,166.4 C140.8,169.9296 137.9296,172.8 134.4,172.8 L134.4,172.8 Z M201.6,105.6 C205.1296,105.6 208,108.4704 208,112 C208,115.5296 205.1296,118.4 201.6,118.4 C198.0704,118.4 195.2,115.5296 195.2,112 C195.2,108.4704 198.0704,105.6 201.6,105.6 L201.6,105.6 Z M208,172.8 C202.7072,172.8 198.4,177.1072 198.4,182.4 C198.4,183.8272 198.7328,185.168 199.2928,186.3872 L188.0768,193.3888 C185.9744,191.1424 183.1808,189.584 180.0224,189.0464 L179.2608,172.1024 C186.6048,169.9872 192,163.216 192,155.2 C192,150.4896 190.128,146.2144 187.104,143.0528 L198.256,124.3008 C199.328,124.5952 200.4384,124.8 201.6,124.8 C208.6592,124.8 214.4,119.0592 214.4,112 C214.4,104.9408 208.6592,99.2 201.6,99.2 C194.5408,99.2 188.8,104.9408 188.8,112 C188.8,115.5904 190.2944,118.8256 192.6816,121.152 L181.8912,139.2992 C179.616,138.2208 177.0816,137.6 174.4,137.6 C170.7136,137.6 167.2896,138.7456 164.4608,140.6912 L152.7456,128.7136 C153.2832,127.5168 153.6,126.1984 153.6,124.8 C153.6,119.5072 149.2928,115.2 144,115.2 C138.7072,115.2 134.4,119.5072 134.4,124.8 C134.4,130.0928 138.7072,134.4 144,134.4 C145.5552,134.4 147.0048,133.9936 148.3104,133.3312 L159.9264,145.2096 C157.9584,148.0512 156.8,151.4912 156.8,155.2 C156.8,155.8528 156.8416,156.496 156.912,157.1296 L145.1872,159.568 C142.912,155.9936 138.944,153.6 134.4,153.6 C127.3408,153.6 121.6,159.3408 121.6,166.4 C121.6,173.4592 127.3408,179.2 134.4,179.2 C141.4592,179.2 147.2,173.4592 147.2,166.4 C147.2,166.16 147.1424,165.936 147.1328,165.7024 L158.7808,163.2768 C161.4944,168.4992 166.736,172.1952 172.88,172.7232 L173.632,189.424 C167.6288,191.1616 163.2,196.6464 163.2,203.2 C163.2,211.1392 169.6608,217.6 177.6,217.6 C185.5392,217.6 192,211.1392 192,203.2 C192,201.7056 191.7056,200.288 191.28,198.9312 L203.9104,191.0496 C205.152,191.6416 206.5312,192 208,192 C213.2928,192 217.6,187.6928 217.6,182.4 C217.6,177.1072 213.2928,172.8 208,172.8 L208,172.8 Z M100.8,48 C131.9168,48 153.6,58.1184 153.6,67.2 C153.6,76.2816 131.9168,86.4 100.8,86.4 C69.6832,86.4 48,76.2816 48,67.2 C48,58.1184 69.6832,48 100.8,48 L100.8,48 Z M153.6,192.064 C153.6,200.8704 131.9168,210.688 100.8,210.688 C69.6832,210.688 48,200.8704 48,192.064 L48,165.696 C57.4624,173.7664 76.5984,179.0528 99.7344,179.0528 C105.184,179.0528 110.6912,178.7488 116.0928,178.1504 L115.3888,171.7888 C110.2176,172.3616 104.9504,172.6528 99.7344,172.6528 C68.7872,172.6528 48,162.9408 48,153.8752 L48,122.5184 C57.4624,130.5888 76.5984,135.872 99.7344,135.872 C110.8224,135.872 121.5872,134.6432 130.864,132.3136 L129.3056,126.1088 C120.5312,128.3104 110.3072,129.472 99.7344,129.472 C68.7872,129.472 48,119.7632 48,110.6944 L48,79.1104 C57.5904,87.376 77.1328,92.8 100.8,92.8 C124.4672,92.8 144.0096,87.376 153.6,79.1104 L153.6,115.2 L160,115.2 L160,67.2 C160,52.6048 134.5504,41.6 100.8,41.6 C67.0496,41.6 41.6,52.6048 41.6,67.2 L41.6,192.064 C41.6,206.3296 67.0496,217.088 100.8,217.088 C134.5504,217.088 160,206.3296 160,192.064 L160,176 L153.6,176 L153.6,192.064 Z" fill="#FFFFFF"></path>
    </g>
</svg>

<svg viewBox="0 0 256 256" xmlns="http://www.w3.org/2000/svg"><defs><linearGradient id="a" x1="0%" x2="100%" y1="100%" y2="0%"><stop offset="0%" stop-color="#2E27AD"/><stop offset="100%" stop-color="#527FFF"/></linearGradient></defs><path fill="url(#a)" d="M0 0h256v256H0Z"/><path fill="#FFF" d="M208 185.6c-1.77 0-3.2-1.44-3.2-3.2 0-1.77 1.43-3.2 3.2-3.2 1.76 0 3.2 1.43 3.2 3.2 0 1.76-1.44 3.2-3.2 3.2v0Zm-30.4 25.6c-4.42 0-8-3.6-8-8 0-4.41 3.58-8 8-8 4.41 0 8 3.59 8 8 0 4.4-3.59 8-8 8v0Zm-14.4-56c0-6.18 5.02-11.2 11.2-11.2 6.17 0 11.2 5.02 11.2 11.2 0 6.17-5.03 11.2-11.2 11.2 -6.18 0-11.2-5.03-11.2-11.2v0ZM144 128c-1.77 0-3.2-1.44-3.2-3.2 0-1.77 1.43-3.2 3.2-3.2 1.76 0 3.2 1.43 3.2 3.2 0 1.76-1.44 3.2-3.2 3.2v0Zm-9.6 44.8c-3.53 0-6.4-2.88-6.4-6.4 0-3.53 2.87-6.4 6.4-6.4 3.52 0 6.4 2.87 6.4 6.4 0 3.52-2.88 6.4-6.4 6.4v0Zm67.2-67.2c3.52 0 6.4 2.87 6.4 6.4 0 3.52-2.88 6.4-6.4 6.4 -3.53 0-6.4-2.88-6.4-6.4 0-3.53 2.87-6.4 6.4-6.4v0Zm6.4 67.2c-5.3 0-9.6 4.3-9.6 9.6 0 1.42.33 2.76.89 3.98l-11.22 7c-2.11-2.25-4.9-3.81-8.06-4.35l-.77-16.95c7.34-2.12 12.73-8.89 12.73-16.91 0-4.72-1.88-8.99-4.9-12.15l11.15-18.76c1.07.29 2.18.49 3.34.49 7.05 0 12.8-5.75 12.8-12.8 0-7.06-5.75-12.8-12.8-12.8 -7.06 0-12.8 5.74-12.8 12.8 0 3.59 1.49 6.82 3.88 9.15l-10.8 18.14c-2.28-1.08-4.81-1.7-7.5-1.7 -3.69 0-7.12 1.14-9.94 3.09l-11.72-11.98c.53-1.2.85-2.52.85-3.92 0-5.3-4.31-9.6-9.6-9.6 -5.3 0-9.6 4.3-9.6 9.6 0 5.29 4.3 9.6 9.6 9.6 1.55 0 3-.41 4.31-1.07l11.61 11.87c-1.97 2.84-3.13 6.28-3.13 9.99 0 .65.04 1.29.11 1.92l-11.73 2.43c-2.28-3.58-6.25-5.97-10.79-5.97 -7.06 0-12.8 5.74-12.8 12.8 0 7.05 5.74 12.8 12.8 12.8 7.05 0 12.8-5.75 12.8-12.8 0-.24-.06-.47-.07-.7l11.64-2.43c2.71 5.22 7.95 8.91 14.09 9.44l.75 16.7c-6.01 1.73-10.44 7.22-10.44 13.77 0 7.93 6.46 14.4 14.4 14.4 7.93 0 14.4-6.47 14.4-14.4 0-1.5-.3-2.92-.72-4.27l12.63-7.89c1.24.59 2.62.95 4.08.95 5.29 0 9.6-4.31 9.6-9.6 0-5.3-4.31-9.6-9.6-9.6v0ZM100.8 48c31.11-.001 52.8 10.11 52.8 19.2 0 9.08-21.69 19.2-52.8 19.2C69.68 86.4 48 76.28 48 67.2 48 58.11 69.68 48 100.8 48v0Zm52.8 144.064c0 8.8-21.69 18.62-52.8 18.62 -31.12 0-52.8-9.82-52.8-18.63v-26.37c9.46 8.07 28.59 13.35 51.73 13.35 5.44 0 10.95-.31 16.35-.91l-.71-6.37c-5.18.57-10.44.86-15.66.86 -30.95 0-51.74-9.72-51.74-18.78v-31.36c9.46 8.07 28.59 13.35 51.73 13.35 11.08 0 21.85-1.23 31.12-3.56l-1.56-6.21c-8.78 2.2-19 3.36-29.58 3.36 -30.95 0-51.74-9.71-51.74-18.78V79.04c9.59 8.26 29.13 13.68 52.8 13.68 23.66 0 43.2-5.43 52.8-13.69v36.08h6.4v-48c0-14.6-25.45-25.6-59.2-25.6 -33.76 0-59.2 11-59.2 25.6v124.864c0 14.26 25.44 25.02 59.2 25.02 33.75 0 59.2-10.76 59.2-25.03v-16.07h-6.4v16.06Z"/></svg>
